src/assets/frontend/astro.svg

<svg xmlns="http://www.w3.org/2000/svg" width="256" height="256" viewBox="0 0 256 256"><defs><path id="path_1" d="M0 0h256v256H0z"/></defs><g id="favicon-(1)" fill-rule="evenodd" stroke="none"><path id="Fondo" fill="#fff" fill-opacity="0" d="M0 0h256v256H0z"/><path id="a" fill="#000014" d="M163.008 18.929c1.944 2.413 2.935 5.67 4.917 12.181l43.309 142.27a180.3 180.3 0 0 0-51.778-17.53l-28.198-95.29a3.67 3.67 0 0 0-7.042.01l-27.857 95.232a180.2 180.2 0 0 0-52.01 17.557l43.52-142.281c1.99-6.502 2.983-9.752 4.927-12.16a16 16 0 0 1 6.484-4.798c2.872-1.154 6.271-1.154 13.07-1.154h31.085c6.807 0 10.211 0 13.086 1.157a16 16 0 0 1 6.487 4.806"/><path id="flame" fill="#ff5d01" d="M168.19 180.151c-7.139 6.105-21.39 10.268-37.804 10.268-20.147 0-37.033-6.272-41.513-14.707-1.602 4.835-1.961 10.367-1.961 13.902 0 0-1.056 17.355 11.015 29.426 0-6.268 5.081-11.349 11.349-11.349 10.743 0 10.731 9.373 10.721 16.977v.679c0 11.542 7.054 21.436 17.086 25.606a23.3 23.3 0 0 1-2.339-10.2c0-11.008 6.463-15.107 13.974-19.87 5.976-3.79 12.616-8.001 17.192-16.449a31 31 0 0 0 3.743-14.82c0-3.299-.513-6.479-1.463-9.463"/></g></svg>

<svg width="256px" height="256px" viewBox="0 0 256 256" version="1.1"
  xmlns:xlink="http://www.w3.org/1999/xlink"
  xmlns="http://www.w3.org/2000/svg">
  <defs>
    <path d="M0 0L256 0L256 256L0 256L0 0Z" id="path_1" />
    <clipPath id="mask_1">
      <use xlink:href="#path_1" />
    </clipPath>
  </defs>
  <g id="favicon-(1)">
    <path d="M0 0L256 0L256 256L0 256L0 0Z" id="Fondo" fill="#FFFFFF" fill-opacity="0" fill-rule="evenodd" stroke="none" />
    <path d="M163.008 18.929C164.952 21.342 165.943 24.599 167.925 31.11L211.234 173.38C194.966 164.939 177.506 159.027 159.456 155.85L131.258 60.56C130.797 58.9985 129.361 57.9278 127.733 57.9301C126.105 57.9324 124.673 59.0072 124.216 60.57L96.359 155.802C78.2275 158.964 60.6874 164.885 44.349 173.359L87.869 31.078C89.859 24.576 90.852 21.326 92.796 18.918C94.5121 16.7911 96.7443 15.1393 99.28 14.12C102.152 12.966 105.551 12.966 112.35 12.966L143.435 12.966C150.242 12.966 153.646 12.966 156.521 14.123C159.058 15.1443 161.292 16.799 163.008 18.929L163.008 18.929Z" id="a" fill="#000014" fill-rule="evenodd" stroke="none" />
    <path d="M168.19 180.151C161.051 186.256 146.8 190.419 130.386 190.419C110.239 190.419 93.353 184.147 88.873 175.712C87.271 180.547 86.912 186.079 86.912 189.614C86.912 189.614 85.856 206.969 97.927 219.04C97.927 212.772 103.008 207.691 109.276 207.691C120.019 207.691 120.007 217.064 119.997 224.668L119.997 225.347C119.997 236.889 127.051 246.783 137.083 250.953C135.539 247.775 134.739 244.287 134.744 240.753C134.744 229.745 141.207 225.646 148.718 220.883C154.694 217.093 161.334 212.882 165.91 204.434C168.374 199.883 169.661 194.789 169.653 189.614C169.653 186.315 169.14 183.135 168.19 180.151L168.19 180.151Z" id="flame" fill="#FF5D01" fill-rule="evenodd" stroke="none" />
  </g>
</svg>
